X:2862
T:Charlie Harris' Reel
R:reel
D:De Danann: Song for Ireland
Z:id:hn-reel-606
M:C|
K:D
AFDF EFDF|AFAB e2dB|AFDF EFDF|1 AFAB d2dB:|2 AFAB d3A||
d2fd efdB|AFAB ~e3f|1 defd efdB|AFAB d3A:|2 df~f2 af~f2|afef d2dB||


